X: 30281
M: 3/8
L: 1/16
K: Bb
f2 |\
(d2B2).f2 | (d2B2).b2 | (ba).g.f.a.g | (b2f2).f2 |\
(d2B2).f2 | (d2B2).f2 | (e>g)(c>e)(A>c) | B4 :|
|: (=e>f) |\
.[c2A2].[c2A2] e<f | .[d2B2].[d2B2] e<f | .c2.c2 f_e | d2d2 a<b |\
.f2.f2 (a<b) | g2g2 ce | (de).f.d.c.A | B4 :|
K: Eb
e2d2c2 | B2A2G2 |[1 F2FGAF | G2B2e2 :|2 F2FGFG | E4 :|


